src/assets/images/latitude.svg

<svg xmlns="http://www.w3.org/2000/svg" viewBox="0 0 480 480" width="512" height="512"><path d="M240 0C107.452 0 0 107.452 0 240s107.452 240 240 240 240-107.452 240-240C479.85 107.514 372.486.15 240 0zm100.689 40H139.311c63.312-32 138.066-32 201.378 0zM112.467 56h255.065a225.808 225.808 0 0 1 50.288 48H62.179a225.83 225.83 0 0 1 50.288-48zM51 120h378a223.099 223.099 0 0 1 23.061 48H27.939A223.099 223.099 0 0 1 51 120zm-27.912 64h433.824a223.288 223.288 0 0 1 6.885 48H16.203a223.35 223.35 0 0 1 6.885-48zm116.223 256h201.378c-63.312 32-138.066 32-201.378 0zm228.222-16H112.467a225.808 225.808 0 0 1-50.288-48H417.82a225.804 225.804 0 0 1-50.287 48zM429 360H51a223.099 223.099 0 0 1-23.061-48H452.06A223.048 223.048 0 0 1 429 360zm27.912-64H23.088a223.296 223.296 0 0 1-6.885-48h447.594a223.359 223.359 0 0 1-6.885 48z" fill="#FFF"/></svg>

<?xml version="1.0" encoding="iso-8859-1"?>
<!-- Generator: Adobe Illustrator 19.0.0, SVG Export Plug-In . SVG Version: 6.00 Build 0)  -->
<svg xmlns="http://www.w3.org/2000/svg" xmlns:xlink="http://www.w3.org/1999/xlink" version="1.1" id="Capa_1" x="0px" y="0px" viewBox="0 0 480 480" style="enable-background:new 0 0 480 480;" xml:space="preserve" width="512px" height="512px">
<g>
	<g>
		<path d="M240,0C107.452,0,0,107.452,0,240s107.452,240,240,240s240-107.452,240-240C479.85,107.514,372.486,0.15,240,0z     M340.689,40H139.311C202.623,8,277.377,8,340.689,40z M112.467,56h255.065c19.14,13.308,36.103,29.5,50.288,48H62.179    C76.364,85.5,93.328,69.308,112.467,56z M51,120h378c9.576,15.022,17.318,31.137,23.061,48H27.939    C33.682,151.137,41.424,135.022,51,120z M23.088,184h433.824c4.031,15.703,6.339,31.797,6.885,48H16.203    C16.749,215.797,19.058,199.703,23.088,184z M139.311,440h201.378C277.377,472,202.623,472,139.311,440z M367.533,424H112.467    c-19.14-13.308-36.103-29.5-50.288-48h355.641C403.636,394.5,386.672,410.692,367.533,424z M429,360H51    c-9.576-15.022-17.318-31.137-23.061-48h424.121C446.318,328.863,438.576,344.978,429,360z M456.912,296H23.088    c-4.031-15.703-6.339-31.798-6.885-48h447.594C463.251,264.202,460.942,280.297,456.912,296z" fill="#FFFFFF"/>
	</g>
</g>
<g>
</g>
<g>
</g>
<g>
</g>
<g>
</g>
<g>
</g>
<g>
</g>
<g>
</g>
<g>
</g>
<g>
</g>
<g>
</g>
<g>
</g>
<g>
</g>
<g>
</g>
<g>
</g>
<g>
</g>
</svg>
